src/static/logos/sparkcentral.svg

<?xml version="1.0" encoding="UTF-8" standalone="no"?>
<svg width="256px" height="292px" viewBox="0 0 256 292" version="1.1" xmlns="http://www.w3.org/2000/svg" xmlns:xlink="http://www.w3.org/1999/xlink" preserveAspectRatio="xMidYMid">
	<g>
		<path d="M11.4572851,176.169124 C12.6745703,175.445333 13.8096064,174.713317 15.0268916,173.989526 C49.6701687,152.974908 88.8289157,142.512835 128.086361,142.512835 C167.253333,142.512835 206.42853,152.983133 241.047133,173.989526 C242.264418,174.713317 243.399454,175.445333 244.624964,176.169124 C251.352932,181.202763 255.810827,189.148016 255.810827,198.23653 C255.810827,213.477269 243.481703,225.806394 228.232739,225.806394 C222.475309,225.806394 217.1209,224.02159 212.671229,221.019502 C194.905446,210.228434 175.527582,203.253719 155.648,199.856835 L155.648,263.673831 C155.648,278.93102 143.244851,291.25192 128.078137,291.25192 C112.837398,291.25192 100.426024,278.922795 100.426024,263.673831 L100.426024,199.856835 C80.5546667,203.253719 61.1685783,210.228434 43.4027952,221.019502 C39.0271486,224.02159 33.672739,225.806394 27.8412851,225.806394 C12.6005462,225.806394 0.263196787,213.477269 0.263196787,198.23653 C0.263196787,189.148016 4.72931727,181.210988 11.4572851,176.169124 Z" fill="#253351"></path>
		<path d="M11.4572851,115.674988 C12.6745703,116.398779 13.8096064,117.13902 15.0268916,117.862811 C27.2655422,125.289896 40.0963855,131.335197 53.2808996,136.130313 C77.3880803,127.34612 102.704321,122.9129 128.086361,122.9129 C153.402602,122.9129 178.710618,127.354345 202.793124,136.130313 C215.977639,131.335197 228.800257,125.29812 241.047133,117.862811 C242.264418,117.13902 243.399454,116.398779 244.616739,115.674988 C251.344707,110.657799 255.810827,102.696096 255.810827,93.6158072 C255.810827,78.3750683 243.481703,66.0377189 228.232739,66.0377189 C222.401285,66.0377189 217.038651,67.8225221 212.671229,70.8328353 C194.905446,81.6239036 175.527582,88.5986185 155.648,91.995502 L155.648,28.1702811 C155.648,12.9295422 143.236627,0.600417671 127.995888,0.600417671 C112.829173,0.600417671 100.426024,12.9295422 100.426024,28.1702811 L100.426024,91.995502 C80.5546667,88.5986185 61.1685783,81.6239036 43.4027952,70.8328353 C38.9613494,67.8225221 33.6069398,66.0459438 27.84951,66.0459438 C12.6087711,66.0459438 0.271421687,78.3832932 0.271421687,93.6240321 C0.263196787,102.696096 4.72931727,110.649574 11.4572851,115.674988 L11.4572851,115.674988 Z" fill="#4690DC"></path>
	</g>
</svg>

<svg width="256" height="292" xmlns="http://www.w3.org/2000/svg" preserveAspectRatio="xMidYMid"><path d="M11.457 176.17c1.218-.725 2.353-1.457 3.57-2.18 34.643-21.015 73.802-31.477 113.06-31.477 39.166 0 78.342 10.47 112.96 31.477 1.217.723 2.352 1.455 3.578 2.18 6.728 5.033 11.186 12.978 11.186 22.067 0 15.24-12.33 27.57-27.578 27.57-5.758 0-11.112-1.785-15.562-4.787-17.766-10.792-37.143-17.766-57.023-21.163v63.817c0 15.257-12.403 27.578-27.57 27.578-15.24 0-27.652-12.33-27.652-27.578v-63.817c-19.871 3.397-39.257 10.371-57.023 21.163-4.376 3.002-9.73 4.786-15.562 4.786-15.24 0-27.578-12.329-27.578-27.57 0-9.088 4.466-17.025 11.194-22.067z" fill="#253351"/><path d="M11.457 115.675c1.218.724 2.353 1.464 3.57 2.188 12.239 7.427 25.07 13.472 38.254 18.267a218.47 218.47 0 0174.805-13.217c25.317 0 50.625 4.441 74.707 13.217 13.185-4.795 26.007-10.832 38.254-18.267 1.217-.724 2.352-1.464 3.57-2.188 6.728-5.017 11.194-12.979 11.194-22.06 0-15.24-12.33-27.577-27.578-27.577-5.832 0-11.194 1.785-15.562 4.795-17.766 10.79-37.143 17.766-57.023 21.163V28.17c0-15.24-12.411-27.57-27.652-27.57-15.167 0-27.57 12.33-27.57 27.57v63.826c-19.871-3.397-39.257-10.372-57.023-21.163a27.647 27.647 0 00-15.553-4.787C12.609 66.046.27 78.383.27 93.624c-.008 9.072 4.458 17.026 11.186 22.051z" fill="#4690DC"/></svg>
